X:57
T:Lark on the Strand
M:6/8
L:1/8
R:jig
K:Ador
ABA AGA | BGE G3 | ABA GBd | edg edB |
ABA AGA | BGE G2B | dBA G2B | dBG BdB :|
GBd g2d | gba gdB | GBd g2d | edg edB |
GBd g2d | gba gab | a3 agd | edg edB |
GBd g2d | gba gdB | GBd g2d | edg edB |
GBd g2d | gba gab | a3 agb | age dBG |]
